X:141
T:Marche du Verner
T:Tune
K:G
M:6/8
L:1/8
P:A
"D7"d3|:"G"B2B B2B|BGG GFE|"G"D2D D2D|DGG GFG|
"D7"F2F F2F|Fcc cBA|1 "G"B2B B2B|"G"BDE "D7"FED:|2 "G"GFG "D7"BdB|"G"G3 g3||
P:B
|:"D7"fed fed|fed cBA|"G"GFG BGB|d3 g2g|"D7"fed fed|
fed cBA|1 "G"GFG "D7"BdB|"G"G3 g3:|2 "G"GFG "D7"BdB|"G"GDE "D7"FED||
T:Harmony
P:A
"G"B3 A3|G3 F3|"G"D3 C3|B,3 C3|"D"D3 E3|\
F3 c3|1 "G"B3 A3|"G"G3 "D7"A3:|2 "G"B3 "D7"A3|"G"G6||
P:B
|:"D7"D3 D3|E3 F3|"G"G3 F3|E3 C3|"D7"D3 D3|\
E3 F3|1 "G"G3 F3|G3 C3:|2 "G"G3 "D7"D3|"G"G3 "D7"D3||



%%newpage
%%textfont * 20
%%text J6 (1.0)
%%textfont * 12



